images/neocrym/v2/SVG/neocrym-square-wordmark-vertical-white-on-darkgray.svg

<?xml version="1.0" encoding="UTF-8"?><svg id="Background" xmlns="http://www.w3.org/2000/svg" viewBox="0 0 500 500"><defs><style>.cls-1{fill:#f9662b;}.cls-2{fill:#fff;}.cls-3{fill:#303335;}</style></defs><rect class="cls-3" width="500" height="500"/><g><g><path class="cls-2" d="m246.36,195.27l-38.14-31.03c-1.21-.99-3.04-.12-3.04,1.43v64.94l-14.38,8.13c-3.63,2.05-5.88,5.9-5.88,10.08v20.63c0,1.09,1.19,1.8,2.15,1.26l18.11-10.25,8.94-5.06c3.63-2.05,5.88-5.9,5.88-10.1v-52.35l29.99,24.41v-14.48c0-2.94-1.33-5.76-3.63-7.61Z"/><path class="cls-1" d="m312.91,164l-18.11,10.25-8.94,5.06c-3.63,2.05-5.88,5.93-5.88,10.1v52.35l-29.99-24.41v14.48c0,2.94,1.33,5.76,3.63,7.61l38.14,31.03c1.24.99,3.04.12,3.04-1.43v-64.94l14.38-8.13c3.66-2.05,5.9-5.9,5.9-10.08v-20.63c0-1.09-1.21-1.8-2.17-1.26Z"/></g><g><path class="cls-2" d="m97.23,291.76c-1.84,0-3.33,1.52-3.33,3.4v30.78l-22.24-32.13c-1.03-1.32-2.39-2.05-3.81-2.05h-.79c-2.51,0-4.55,2.07-4.55,4.61v36.18c0,1.84,1.5,3.33,3.33,3.33s3.4-1.5,3.4-3.33v-30.84l22.36,32.3c.9,1.19,2.24,1.88,3.7,1.88h.73c2.54,0,4.61-2.04,4.61-4.55v-36.18c0-1.84-1.55-3.4-3.4-3.4Z"/><path class="cls-2" d="m148.51,298.43c1.8,0,3.21-1.39,3.21-3.15s-1.41-3.21-3.21-3.21h-24.3c-1.84,0-3.33,1.52-3.33,3.4v36.79c0,1.84,1.5,3.33,3.33,3.33h24.3c1.8,0,3.21-1.39,3.21-3.15s-1.41-3.21-3.21-3.21h-20.91v-12.24h18.72c1.8,0,3.21-1.39,3.21-3.15s-1.41-3.21-3.21-3.21h-18.72v-12.18h20.91Z"/><path class="cls-2" d="m188.15,291.46c-12.83,0-21.62,8.98-21.88,22.38.26,13.37,9.05,22.35,21.88,22.35s21.62-8.98,21.88-22.35v-.02c-.26-13.37-9.05-22.35-21.88-22.35Zm0,38.36c-9.06,0-15.15-6.43-15.15-16s6.09-16,15.15-16,15.15,6.43,15.15,16-6.09,16-15.15,16Z"/><path class="cls-2" d="m247.55,297.95c4.6,0,7.65,1.11,10.82,2.78.55.28,1.14.31,1.36.31.88,0,1.67-.33,2.24-.92.54-.57.83-1.35.79-2.14-.07-1.26-.59-2.11-1.64-2.68-3.36-1.9-7.66-3.84-14.12-3.84-13.05,0-21.82,8.99-21.82,22.36s8.77,22.36,21.82,22.36c6.45,0,10.76-1.94,14.11-3.83,1.06-.57,1.59-1.43,1.65-2.69h0c.04-.8-.25-1.58-.79-2.14-.57-.59-1.36-.92-2.24-.92-.22,0-.81.03-1.37.31-3.16,1.67-6.2,2.78-10.81,2.78-9.64,0-15.63-6.08-15.63-15.88s5.99-15.88,15.63-15.88Z"/><path class="cls-2" d="m317.85,304.98c0-8.2-6.23-12.91-17.09-12.91h-14.12c-1.84,0-3.33,1.52-3.33,3.4v37.09c0,1.84,1.5,3.33,3.33,3.33s3.4-1.5,3.4-3.33v-13.45h11.94c7.79,0,8.79,6.22,8.79,11.63v1.82c0,1.99,1.36,3.33,3.4,3.33,1.84,0,3.33-1.5,3.33-3.33v-2.79c0-2.67-.5-11.08-6.49-13.85,4.26-2.05,6.85-6.11,6.85-10.93Zm-6.73.42c0,4.55-4.01,7.27-10.72,7.27h-10.36v-14.18h10.06c9.77,0,11.03,3.69,11.03,6.91Z"/><path class="cls-2" d="m370.4,291.76c-1.21,0-2.19.56-2.93,1.66l-12.16,17.69-12.16-17.69c-.73-1.1-1.72-1.66-2.93-1.66-.91,0-1.75.35-2.37.99-.62.65-.94,1.51-.91,2.4,0,.69.19,1.35.6,1.99l14.37,20.14v15.26c0,1.84,1.52,3.33,3.4,3.33s3.33-1.5,3.33-3.33v-15.26l14.45-20.18c.38-.61.58-1.27.58-1.93.04-.92-.29-1.78-.91-2.43-.61-.64-1.46-.99-2.37-.99Z"/><path class="cls-2" d="m432.95,291.76h-2c-1.82,0-3.53,1.17-4.26,2.93l-13.19,32.9-13.2-32.9c-.73-1.75-2.44-2.92-4.26-2.92h-2c-2.51,0-4.55,2.07-4.55,4.61v36.18c0,1.84,1.5,3.33,3.33,3.33s3.4-1.5,3.4-3.33v-31.3l12.84,31.73c.79,1.79,2.49,2.91,4.44,2.91s3.64-1.11,4.44-2.93l12.83-31.71v31.3c0,1.84,1.52,3.33,3.4,3.33s3.33-1.5,3.33-3.33v-36.18c0-2.54-2.04-4.61-4.55-4.61Z"/></g></g></svg>

<svg id="Background" xmlns="http://www.w3.org/2000/svg" viewBox="0 0 500 500"><defs><style>.cls-1{fill:#303335;}.cls-2{fill:#fff;}.cls-3{fill:#f9662b;}</style></defs><rect class="cls-1" width="500" height="500"/><path class="cls-2" d="M246.36,195.27l-38.15-31a1.85,1.85,0,0,0-3,1.43v64.94l-14.38,8.13a11.57,11.57,0,0,0-5.88,10.08v20.63a1.45,1.45,0,0,0,2.15,1.26l18.11-10.26,8.94-5.06A11.58,11.58,0,0,0,220,245.3V193l30,24.41V202.88A9.83,9.83,0,0,0,246.36,195.27Z"/><path class="cls-3" d="M312.91,164,294.8,174.25l-8.94,5.06A11.62,11.62,0,0,0,280,189.42v52.34l-30-24.4v14.47a9.79,9.79,0,0,0,3.63,7.61l38.14,31a1.86,1.86,0,0,0,3-1.43v-65L309.18,196a11.55,11.55,0,0,0,5.9-10.07V165.26A1.46,1.46,0,0,0,312.91,164Z"/><path class="cls-2" d="M97.23,291.76a3.37,3.37,0,0,0-3.34,3.4v30.78L71.65,293.81a4.88,4.88,0,0,0-3.82-2.05h-.78a4.59,4.59,0,0,0-4.55,4.61v36.18a3.37,3.37,0,0,0,6.73,0V301.71L91.59,334a4.6,4.6,0,0,0,3.7,1.87H96a4.57,4.57,0,0,0,4.6-4.54V295.16A3.44,3.44,0,0,0,97.23,291.76Z"/><path class="cls-2" d="M148.51,298.43a3.14,3.14,0,0,0,3.21-3.15,3.18,3.18,0,0,0-3.21-3.22H124.2a3.37,3.37,0,0,0-3.33,3.4v36.79a3.33,3.33,0,0,0,3.33,3.33h24.31a3.14,3.14,0,0,0,3.21-3.15,3.18,3.18,0,0,0-3.21-3.22H127.6V317h18.72a3.19,3.19,0,1,0,0-6.37H127.6V298.43Z"/><path class="cls-2" d="M188.15,291.46c-12.83,0-21.63,9-21.88,22.38.25,13.36,9,22.35,21.88,22.35s21.62-9,21.88-22.35v0C209.77,300.44,201,291.46,188.15,291.46Zm0,38.36c-9.06,0-15.15-6.43-15.15-16s6.09-16,15.15-16,15.15,6.42,15.15,16S197.21,329.82,188.15,329.82Z"/><path class="cls-2" d="M247.55,298a21.33,21.33,0,0,1,10.81,2.78,3.19,3.19,0,0,0,1.37.31,3.07,3.07,0,0,0,2.24-.92,2.92,2.92,0,0,0,.79-2.15,3,3,0,0,0-1.64-2.68A27.17,27.17,0,0,0,247,291.46c-13.05,0-21.82,9-21.82,22.36S234,336.19,247,336.19a27.1,27.1,0,0,0,14.11-3.83,3,3,0,0,0,1.65-2.69h0a2.91,2.91,0,0,0-.79-2.14,3.07,3.07,0,0,0-2.24-.92,3.25,3.25,0,0,0-1.38.31,21.26,21.26,0,0,1-10.8,2.78c-9.65,0-15.64-6.08-15.64-15.88S237.9,298,247.55,298Z"/><path class="cls-2" d="M317.85,305c0-8.21-6.23-12.92-17.09-12.92H286.64a3.37,3.37,0,0,0-3.33,3.4v37.09a3.33,3.33,0,0,0,3.33,3.33,3.37,3.37,0,0,0,3.4-3.33V319.1H302c7.78,0,8.78,6.21,8.78,11.63v1.82a3.18,3.18,0,0,0,3.4,3.33,3.34,3.34,0,0,0,3.33-3.33v-2.79c0-2.67-.5-11.08-6.49-13.85A11.85,11.85,0,0,0,317.85,305Zm-6.73.42c0,4.55-4,7.27-10.72,7.27H290V298.49H300.1C309.87,298.49,311.12,302.18,311.12,305.4Z"/><path class="cls-2" d="M370.4,291.76a3.38,3.38,0,0,0-2.92,1.66l-12.17,17.69-12.16-17.68a3.38,3.38,0,0,0-2.93-1.67,3.25,3.25,0,0,0-3.27,3.4,3.66,3.66,0,0,0,.6,2l14.37,20.14v15.26a3.37,3.37,0,0,0,6.73,0V317.29l14.45-20.18a3.65,3.65,0,0,0,.58-1.93,3.32,3.32,0,0,0-.91-2.43A3.26,3.26,0,0,0,370.4,291.76Z"/><path class="cls-2" d="M433,291.76h-2a4.7,4.7,0,0,0-4.26,2.93L413.5,327.58l-13.2-32.9a4.69,4.69,0,0,0-4.26-2.92h-2a4.59,4.59,0,0,0-4.55,4.61v36.18a3.33,3.33,0,0,0,3.33,3.33,3.36,3.36,0,0,0,3.4-3.33v-31.3L409.06,333a4.84,4.84,0,0,0,8.88,0l12.83-31.71v31.3a3.37,3.37,0,0,0,6.73,0V296.37A4.59,4.59,0,0,0,433,291.76Z"/></svg>
